X: 656
T: Planxty Johnston
C:O'Carolan
B:O'Neill's 656
Z: 1997 by John Chambers <jc@trillian.mit.edu>
N:"Lively"
M:6/8
L:1/8
K:D
| d2d dcB | A2G F2G | E2A D2d | {d}c2B A2a |
| f2e d2e | f2g a2b | a2f d2e | c2d e2f |
| ecA ecA | B2c d2e | d2d {f}edc | d3 d2z ||
| afg a2f | c2d ebc' | d'2b c'2a | b2g efg |
| a2a aba | f2f fgf | ded c2d | ecA ABc |
| dcB AGF | G3- GAG | e2e efe ecA A2z |
| faf gbg | faf geg | fdf ecA | d3 d2z |]


